svg/OSM-icons/historic #61210b °ffffff !label=enhistoric,deHistorisches/19024;historic=memorial;!#memorial..type=stolperstein;[stolperstein];!label=enstolperstein,deStolperstein.svg

<svg xmlns="http://www.w3.org/2000/svg" viewBox="0 0 580 580" enable-background="new 0 0 580 580"><path fill="#111" stroke="#eee" stroke-width="3.408" d="m66.28 1.768c-41.34 0-64.57 21.371-64.57 65.04v450.12c0 40.844 20.894 62.23 62.19 62.23h452.02c41.31 0 62.23-20.316 62.23-62.23v-450.12c0-42.601-20.923-65.04-63.52-65.04-.003 0-448.49-.143-448.35 0z"/><path fill="#fff" d="m457.16 80.01h-334.32c-28.757 0-52.07 23.312-52.07 52.07v315.84c0 28.757 23.312 52.07 52.07 52.07h334.32c28.757 0 52.07-23.313 52.07-52.07v-315.84c.0001-28.757-23.311-52.07-52.07-52.07m-18.668 339.91h-296.98v-7h296.98v7m0-31.498h-296.98v-7h296.98v7m0-31.498h-296.98v-7h296.98v7m0-31.498h-296.98v-7h296.98v7m0-31.498h-296.98v-7h296.98v7m0-120.83h-296.98v-10h296.98v10"/></svg>

<?xml version="1.0" encoding="utf-8"?>
<!-- Generator: Adobe Illustrator 15.0.0, SVG Export Plug-In . SVG Version: 6.00 Build 0)  -->
<!DOCTYPE svg PUBLIC "-//W3C//DTD SVG 1.1//EN" "http://www.w3.org/Graphics/SVG/1.1/DTD/svg11.dtd">
<svg version="1.1" xmlns="http://www.w3.org/2000/svg" xmlns:xlink="http://www.w3.org/1999/xlink" x="0px" y="0px" width="580px"
	 height="580px" viewBox="0 0 580 580" enable-background="new 0 0 580 580" xml:space="preserve">
<g id="Layer_2">
	<g id="g1327">
		<path id="path1329" fill="#111111" stroke="#EEEEEE" stroke-width="3.408" d="M66.275,1.768
			c-41.335,0-64.571,21.371-64.571,65.036v450.123c0,40.844,20.894,62.229,62.192,62.229H515.92
			c41.307,0,62.229-20.316,62.229-62.229V66.804c0-42.601-20.923-65.036-63.522-65.036C514.624,1.768,66.133,1.625,66.275,1.768z"/>
	</g>
</g>
<g id="svg2" inkscape:version="0.46" sodipodi:docname="waste_bin.svg" sodipodi:version="0.32" xmlns:inkscape="http://www.inkscape.org/namespaces/inkscape" xmlns:rdf="http://www.w3.org/1999/02/22-rdf-syntax-ns#" xmlns:dc="http://purl.org/dc/elements/1.1/" xmlns:cc="http://creativecommons.org/ns#" xmlns:svg="http://www.w3.org/2000/svg" xmlns:sodipodi="http://sodipodi.sourceforge.net/DTD/sodipodi-0.dtd" inkscape:output_extension="org.inkscape.output.svg.inkscape">
	<path fill="#FFFFFF" d="M457.16,80.011H122.841c-28.757,0-52.069,23.312-52.069,52.069v315.84
		c0,28.757,23.312,52.069,52.069,52.069H457.16c28.757,0,52.068-23.313,52.068-52.069V132.08
		C509.229,103.323,485.917,80.011,457.16,80.011z M438.492,419.922H141.508v-7h296.984V419.922z M438.492,388.424H141.508v-7
		h296.984V388.424z M438.492,356.926H141.508v-7h296.984V356.926z M438.492,325.428H141.508v-7h296.984V325.428z M438.492,293.93
		H141.508v-7h296.984V293.93z M438.492,173.1H141.508v-10h296.984V173.1z"/>
</g>
</svg>
